X:1
T: Polska efter Snickar-Erske
S: efter Snickar-Erik Olsson
O: Ovanåkers socken, Hälsingland
R: Polska
Z: Steve Simpson
M: 3/4
L: 1/16
K: Am
ABcd e2>d2 c2B2 | c2Bc d2ef edcB | ABcd e2>d2 c2B2 | AcBc E2EF EDCB, |$ A,4 e2>d2 c2B2 | 
c2Bc d2ef edcB | A2a^g aefd ecBd | cAB^G A8 ::$ e2>d2 e2fg fed^c | d2>^c2 d2ef ed=cB | 
cdcB c2f2 edcB |$ edcB dcBA ^GABc | E2^GB e4 [EB]4 | e2>d2 e2fg fed^c |$ d2>^c2 d2ef ed=cB | 
A2a^g aefd ecBd | cAB^G A8 :|

